X:46
T:Tekeli
M:6/8
L:1/8
Q:1/4=200
O:Belper Militia
A:Derbyshire
K:D
A2 d c2 d |B2 d A3 |ABc def |g2 e c2 A |
d2 d c2 c |B2 B A2 A |ABc def |gec d3::
d2 e f2 g |fag fed |e2 d e2 d |egf edc |
d2 e f2 g |fag fed |e2 d e2 f |d6: |]

